X:297
T:Primrose Lasses
Z: id:dc-reel-276
M:C
L:1/8
K:G Major
B3A G3E|DEGA BAA2|B3A G3E|DEGA BGG2|!
B3A G3E|DEGA BAA2|dcBA GFED|DEGA BGG2|]!
Bdgd edgd|Bdgd BAA2|Bdgd edgd|BdAc BGG2|!
Bdgd edgd|Bdgd BAA2|Bdef gage|dBAc BGG2|]!

